X:150
T:Tank,The TS.150
M:2/4
L:1/8
Q:1/2=70
S:Thomas Sands’ MS,1810,Lincolnshire
R:country dance
N:Simplified notation of TS.126
O:England;Lincolnshire
Z:vmp.Ruairidh Greig, 2011
K:Bb
B2b2|G2g2|c2f>e|d>cB2|defd|efge|f2a2|”bar line and rest added”b2z2:|
|:d2d2|f2d2|(ge)(ec)|(cA)(AF)|d2d2|f2d2|gecA|B4:|]

